X: 119
T: Fenhong lian
L: 1/8
M: 2/4
K: F
f d/ c/ A d [I:setbarnb 1]| 
c3d | 
A c G A | 
c4 | 
c A c d | 
D C/ D/F2 | 
G c F D | 
C4 | 
A> A A A | 
G A c3/ f/ | 
A A/ G/ F D/ F/ | 
G4 | 
c A c3/ d/ | 
D C/ D/F2 | 
G c F D | 
C4 |]

@@@ Tune index: 8993
